T: Top It Off
M: 9/8
L: 1/8
K: Dmaj
E2 G G2 ^F G2 G | A2 d d2 c BAG | E2 G G2 ^F G2 G | ABc d2 B c2 :|e2 c c2 B c2 e | d2 _B B2 A B2 d | c2 A A2 ^G A2 c |1 B2 G G2 B d2 :|
